usr/share/icons/Ambiant-MATE/mimes/22/x-office-drawing.svg

<?xml version="1.0" encoding="UTF-8" standalone="no"?>
<!-- Created with Inkscape (http://www.inkscape.org/) -->

<svg
   xmlns:svg="http://www.w3.org/2000/svg"
   xmlns="http://www.w3.org/2000/svg"
   xmlns:xlink="http://www.w3.org/1999/xlink"
   version="1.0"
   width="22"
   height="22"
   id="svg2770">
  <defs
     id="defs2772">
    <linearGradient
       id="linearGradient3104">
      <stop
         id="stop3106"
         style="stop-color:#aaaaaa;stop-opacity:1"
         offset="0" />
      <stop
         id="stop3108"
         style="stop-color:#c8c8c8;stop-opacity:1"
         offset="1" />
    </linearGradient>
    <linearGradient
       x1="-51.786404"
       y1="50.786446"
       x2="-51.786404"
       y2="2.9062471"
       id="linearGradient2438"
       xlink:href="#linearGradient3104"
       gradientUnits="userSpaceOnUse"
       gradientTransform="matrix(0.3922135,0,0,0.4473607,28.199292,0.7613003)" />
    <linearGradient
       id="linearGradient3600">
      <stop
         id="stop3602"
         style="stop-color:#f4f4f4;stop-opacity:1"
         offset="0" />
      <stop
         id="stop3604"
         style="stop-color:#dbdbdb;stop-opacity:1"
         offset="1" />
    </linearGradient>
    <linearGradient
       x1="25.132275"
       y1="0.98520643"
       x2="25.132275"
       y2="47.013336"
       id="linearGradient2435"
       xlink:href="#linearGradient3600"
       gradientUnits="userSpaceOnUse"
       gradientTransform="matrix(0.4857154,0,0,0.4780255,-0.6571704,1.2940499)" />
    <radialGradient
       cx="102"
       cy="112.3047"
       r="139.55859"
       id="XMLID_8_"
       gradientUnits="userSpaceOnUse">
      <stop
         id="stop41"
         style="stop-color:#b7b8b9;stop-opacity:1"
         offset="0" />
      <stop
         id="stop47"
         style="stop-color:#ececec;stop-opacity:1"
         offset="0.18851049" />
      <stop
         id="stop49"
         style="stop-color:#fafafa;stop-opacity:0"
         offset="0.25718147" />
      <stop
         id="stop51"
         style="stop-color:#ffffff;stop-opacity:0"
         offset="0.30111277" />
      <stop
         id="stop53"
         style="stop-color:#fafafa;stop-opacity:0"
         offset="0.53130001" />
      <stop
         id="stop55"
         style="stop-color:#ebecec;stop-opacity:0"
         offset="0.84490001" />
      <stop
         id="stop57"
         style="stop-color:#e1e2e3;stop-opacity:0"
         offset="1" />
    </radialGradient>
    <radialGradient
       cx="102"
       cy="112.3047"
       r="139.55859"
       id="radialGradient2432"
       xlink:href="#XMLID_8_"
       gradientUnits="userSpaceOnUse"
       gradientTransform="matrix(0.1702128,0,0,-0.1907226,0.1063822,25.716504)" />
    <linearGradient
       id="linearGradient3211">
      <stop
         id="stop3213"
         style="stop-color:#ffffff;stop-opacity:1"
         offset="0" />
      <stop
         id="stop3215"
         style="stop-color:#ffffff;stop-opacity:0"
         offset="1" />
    </linearGradient>
    <linearGradient
       x1="24"
       y1="1.9999999"
       x2="24"
       y2="46.01725"
       id="linearGradient2429"
       xlink:href="#linearGradient3211"
       gradientUnits="userSpaceOnUse"
       gradientTransform="matrix(0.4545444,0,0,0.4651153,0.0909336,2.3372293)" />
    <linearGradient
       x1="28.534189"
       y1="24.239939"
       x2="16.887266"
       y2="13.663627"
       id="linearGradient2768"
       xlink:href="#linearGradient3555-691-445"
       gradientUnits="userSpaceOnUse"
       gradientTransform="matrix(0.6594275,0,0,0.6465221,-5.0326738,-1.5947164)" />
    <linearGradient
       id="linearGradient8589">
      <stop
         id="stop8591"
         style="stop-color:#fefefe;stop-opacity:1"
         offset="0" />
      <stop
         id="stop8593"
         style="stop-color:#cbcbcb;stop-opacity:1"
         offset="1" />
    </linearGradient>
    <linearGradient
       x1="32.892288"
       y1="8.0590115"
       x2="36.358372"
       y2="5.4565363"
       id="linearGradient2425"
       xlink:href="#linearGradient8589"
       gradientUnits="userSpaceOnUse"
       gradientTransform="matrix(0.4778466,0,0,0.5524833,-0.6277461,1.9238717)" />
    <linearGradient
       id="linearGradient3555-691-445">
      <stop
         id="stop3388"
         style="stop-color:#dbd2a2;stop-opacity:1"
         offset="0" />
      <stop
         id="stop3390"
         style="stop-color:#ffffff;stop-opacity:0"
         offset="1" />
    </linearGradient>
  </defs>
  <g
     transform="translate(0,-2)"
     id="layer1">
    <path
       d="m 2.4999608,2.499961 c 3.8955799,0 7.6044552,0 11.5000382,0 0.683368,0.2372969 4.541325,3.12817 5.5,5.000039 0,5.729157 3.9e-5,10.270842 3.9e-5,16 -5.666693,0 -11.3333844,0 -17.0000772,0 0,-7.33336 0,-13.6666811 0,-21.000039 z"
       id="path4160"
       style="fill:url(#linearGradient2435);fill-opacity:1;stroke:url(#linearGradient2438);stroke-width:0.99992162;stroke-linecap:butt;stroke-linejoin:round;stroke-miterlimit:4;stroke-opacity:1;stroke-dasharray:none;stroke-dashoffset:0;display:inline" />
    <path
       d="M 3.1702119,24 C 3.0764249,24 2.9999991,23.91437 2.9999991,23.809277 l 0,-20.5980318 c 0,-0.1052785 0.076426,-0.1907219 0.1702128,-0.1907219 3.5214555,0.052717 7.4238521,-0.078858 10.9410271,0.013125 l 4.838887,4.3271368 0.04987,16.4484919 C 18.999999,23.914366 18.923742,24 18.829785,24 L 3.1702119,24 z"
       id="path4191"
       style="fill:url(#radialGradient2432);fill-opacity:1" />
    <path
       d="m 18.5,7.6770357 c 0,5.2083053 0,10.6146573 0,15.8229643 -5,0 -9.9999997,0 -15.0000009,0 0,-6.66667 0,-13.333334 0,-20.0000001 3.4372614,0 6.9564989,0 10.3937609,0"
       id="path2435"
       style="opacity:0.6;fill:none;stroke:url(#linearGradient2429);stroke-width:0.99999988;stroke-linecap:butt;stroke-linejoin:miter;stroke-miterlimit:4;stroke-opacity:1;stroke-dasharray:none;stroke-dashoffset:0;display:inline" />
    <path
       d="M 5.7514741,21.41069 C 8.5056086,23.242286 14.518697,20.791873 9.5195921,14.234302 4.565742,7.736093 14.441505,3.4740434 17.372103,10.989026"
       id="path2783"
       style="fill:url(#linearGradient2768);fill-opacity:1;fill-rule:evenodd;stroke:#806744;stroke-width:1px;stroke-linecap:butt;stroke-linejoin:miter;stroke-opacity:1" />
    <rect
       width="2"
       height="2"
       x="3.999999"
       y="19.999962"
       id="rect3565"
       style="fill:#808080;fill-opacity:1;stroke:none" />
    <rect
       width="2"
       height="2"
       x="15.999999"
       y="9.9999609"
       id="rect3567"
       style="fill:#808080;fill-opacity:1;stroke:none" />
    <path
       d="M 5.0891655,8.3288278 14.589283,20.645207"
       id="path3571"
       style="fill:none;stroke:#9f9f9f;stroke-width:1.00000012px;stroke-linecap:butt;stroke-linejoin:miter;stroke-opacity:1" />
    <path
       d="m 6.4999887,8.499961 c 3.72e-4,0.5521763 -0.4474529,0.9999999 -0.9999997,0.9999999 -0.5525469,0 -1.0003717,-0.4478236 -0.9999997,-0.9999999 -3.72e-4,-0.5521764 0.4474528,-1 0.9999997,-1 0.5525468,0 1.0003717,0.4478236 0.9999997,1 l 0,0 z"
       id="path3573"
       style="fill:#e6e6e6;fill-opacity:1;stroke:#808080;stroke-width:1.00000012;stroke-linecap:butt;stroke-miterlimit:4;stroke-opacity:1;stroke-dasharray:none" />
    <path
       d="m 15.499998,20.499961 c 3.73e-4,0.552177 -0.447452,1 -1,1 -0.552546,0 -1.000371,-0.447823 -0.999999,-1 -3.72e-4,-0.552175 0.447453,-1 0.999999,-1 0.552548,0 1.000373,0.447825 1,1 l 0,0 z"
       id="path3575"
       style="fill:#e6e6e6;fill-opacity:1;stroke:#808080;stroke-width:1.00000012;stroke-linecap:butt;stroke-miterlimit:4;stroke-opacity:1;stroke-dasharray:none" />
    <rect
       width="2"
       height="2"
       x="7.999999"
       y="12.999961"
       id="rect3569"
       style="fill:#808080;fill-opacity:1;stroke:none" />
    <path
       d="m 13.075473,3 c 1.156303,0.3287671 0.339059,4.6143789 0.339059,4.6143789 0,0 4.515388,-0.4277362 5.60771,1.1949961 1.489153,2.212257 -0.06822,-0.6351721 -0.173447,-0.8216972 C 18.092867,6.6476323 14.982455,3.4405918 13.803386,3.0464703 13.715154,3.0169778 13.51951,3 13.075473,3 z"
       id="path3370"
       style="opacity:0.2;fill:#000000;fill-opacity:1;fill-rule:evenodd;stroke:none;display:inline" />
    <path
       d="m 12.999999,3 c 1.526166,0 1,4 1,4 0,0 4.992074,-0.45326 4.992074,2 0,-0.5977419 0.05575,-1.4784338 -0.06407,-1.6559326 C 18.088896,6.1010616 15.184238,3.4821803 14.129934,3.0464703 14.043956,3.0109384 13.444036,3 12.999999,3 z"
       id="path4474"
       style="fill:url(#linearGradient2425);fill-opacity:1;fill-rule:evenodd;stroke:none;display:inline" />
  </g>
</svg>

<?xml version="1.0" encoding="UTF-8" standalone="no"?>
<!-- Created with Inkscape (http://www.inkscape.org/) -->
<svg id="svg2770" xmlns="http://www.w3.org/2000/svg" height="22" width="22" version="1.0" xmlns:xlink="http://www.w3.org/1999/xlink">
 <defs id="defs2772">
  <linearGradient id="linearGradient2438" y2="2.9062" gradientUnits="userSpaceOnUse" x2="-51.786" gradientTransform="matrix(.39221 0 0 .44736 28.199 .76130)" y1="50.786" x1="-51.786">
   <stop id="stop3106" style="stop-color:#aaa" offset="0"/>
   <stop id="stop3108" style="stop-color:#c8c8c8" offset="1"/>
  </linearGradient>
  <linearGradient id="linearGradient2435" y2="47.013" gradientUnits="userSpaceOnUse" x2="25.132" gradientTransform="matrix(.48572 0 0 .47803 -.65717 1.294)" y1=".98521" x1="25.132">
   <stop id="stop3602" style="stop-color:#f4f4f4" offset="0"/>
   <stop id="stop3604" style="stop-color:#dbdbdb" offset="1"/>
  </linearGradient>
  <radialGradient id="radialGradient2432" gradientUnits="userSpaceOnUse" cy="112.3" cx="102" gradientTransform="matrix(.17021 0 0 -.19072 .10638 25.717)" r="139.56">
   <stop id="stop41" style="stop-color:#b7b8b9" offset="0"/>
   <stop id="stop47" style="stop-color:#ececec" offset=".18851"/>
   <stop id="stop49" style="stop-color:#fafafa;stop-opacity:0" offset=".25718"/>
   <stop id="stop51" style="stop-color:#fff;stop-opacity:0" offset=".30111"/>
   <stop id="stop53" style="stop-color:#fafafa;stop-opacity:0" offset=".53130"/>
   <stop id="stop55" style="stop-color:#ebecec;stop-opacity:0" offset=".84490"/>
   <stop id="stop57" style="stop-color:#e1e2e3;stop-opacity:0" offset="1"/>
  </radialGradient>
  <linearGradient id="linearGradient2429" y2="46.017" gradientUnits="userSpaceOnUse" x2="24" gradientTransform="matrix(.45454 0 0 .46512 .090934 2.3372)" y1="2" x1="24">
   <stop id="stop3213" style="stop-color:#fff" offset="0"/>
   <stop id="stop3215" style="stop-color:#fff;stop-opacity:0" offset="1"/>
  </linearGradient>
  <linearGradient id="linearGradient2768" y2="13.664" gradientUnits="userSpaceOnUse" x2="16.887" gradientTransform="matrix(.65943 0 0 .64652 -5.0327 -1.5947)" y1="24.24" x1="28.534">
   <stop id="stop3388" style="stop-color:#739D38" offset="0"/>
   <stop id="stop3390" style="stop-color:#fff;stop-opacity:0" offset="1"/>
  </linearGradient>
  <linearGradient id="linearGradient2425" y2="5.4565" gradientUnits="userSpaceOnUse" x2="36.358" gradientTransform="matrix(.47785 0 0 .55248 -.62775 1.9239)" y1="8.059" x1="32.892">
   <stop id="stop8591" style="stop-color:#fefefe" offset="0"/>
   <stop id="stop8593" style="stop-color:#cbcbcb" offset="1"/>
  </linearGradient>
 </defs>
 <g id="layer1" transform="translate(0,-2)">
  <path id="path4160" style="stroke-linejoin:round;stroke:url(#linearGradient2438);stroke-width:.99992;fill:url(#linearGradient2435)" d="m2.5 2.5h11.5c0.68337 0.2373 4.5413 3.1282 5.5 5 0 5.7292 0.000039 10.271 0.000039 16h-17v-21z"/>
  <path id="path4191" style="fill:url(#radialGradient2432)" d="m3.1702 24c-0.0938 0-0.1702-0.086-0.1702-0.191v-20.598c0-0.10528 0.076426-0.19072 0.17021-0.19072 3.5215 0.052717 7.4239-0.078858 10.941 0.013125l4.8389 4.3271 0.04987 16.448c0 0.106-0.076 0.192-0.17 0.192h-15.66z"/>
  <path id="path2435" style="opacity:.6;stroke:url(#linearGradient2429);fill:none" d="m18.5 7.677v15.823h-15v-20h10.394"/>
  <path id="path2783" style="fill-rule:evenodd;stroke:#405C20;stroke-width:1px;fill:url(#linearGradient2768)" d="m5.7515 21.411c2.7541 1.831 8.7675-0.619 3.7681-7.177-4.9539-6.4979 4.9224-10.76 7.8524-3.245"/>
  <rect id="rect3565" style="fill:#808080" height="2" width="2" y="20" x="4"/>
  <rect id="rect3567" style="fill:#808080" height="2" width="2" y="10" x="16"/>
  <path id="path3571" style="stroke:#9f9f9f;stroke-width:1px;fill:none" d="m5.0892 8.3288 9.4998 12.316"/>
  <path id="path3573" style="stroke:#808080;fill:#e6e6e6" d="m6.5 8.5c0.000372 0.55218-0.44745 1-1 1s-1.0004-0.44782-1-1c-0.000372-0.55218 0.44745-1 1-1s1.0004 0.44782 1 1z"/>
  <path id="path3575" style="stroke:#808080;fill:#e6e6e6" d="m15.5 20.5c0.000373 0.55218-0.44745 1-1 1s-1.0004-0.44782-1-1c-0.000372-0.55218 0.44745-1 1-1s1.0004 0.44782 1 1z"/>
  <rect id="rect3569" style="fill:#808080" height="2" width="2" y="13" x="8"/>
  <path id="path3370" style="opacity:.2;fill-rule:evenodd" d="m13.075 3c1.1563 0.32877 0.33906 4.6144 0.33906 4.6144s4.5154-0.42774 5.6077 1.195c1.4892 2.2123-0.06822-0.63517-0.17345-0.8217-0.755-1.3401-3.866-4.5471-5.045-4.9412-0.088-0.0295-0.283-0.0465-0.728-0.0465z"/>
  <path id="path4474" style="fill:url(#linearGradient2425);fill-rule:evenodd" d="m13 3c1.5262 0 1 4 1 4s4.9921-0.45326 4.9921 2c0-0.59774 0.05575-1.4784-0.06407-1.6559-0.839-1.243-3.744-3.8619-4.798-4.2976-0.086-0.0356-0.686-0.0465-1.13-0.0465z"/>
 </g>
</svg>
